X:1
T:Argeers
M:4/4
R:Reel
L:1/8
K:Gmaj
GABc A6/2 G | F2 D2 D4 | d2 A2 d6/2 c | B2 G2 G6/2 D |
GABc A6/2 G | F2 FG A2 D2 | EFGE FGAB | G8 :|
FG A2 FG A2 | d2 A2 d2 A2 | FG A2 FG A2 | d2 A2 d2 A2 |
d2 cB c2 dc | B2 AG A2 D2 | EFGE FGAB | G8 :||
